lg/stitch.svg

<svg viewBox="0 0 256 256" version="1.1" xmlns="http://www.w3.org/2000/svg" preserveAspectRatio="xMidYMid" height="1em" width="1em">
  <g>
    <path d="M81.4837093,119.338346 L81.4837093,101.373434 L256,101.373434 L256,0 L0,0 L0,137.303258 L182.215539,137.303258 L182.215539,155.26817 L0,155.26817 L0,256 L256,256 L256,118.696742 L81.4837093,118.696742 L81.4837093,119.338346 Z M130.245614,26.3057644 C137.303258,26.3057644 143.077694,32.0802005 143.077694,39.1378446 C143.077694,46.1954887 137.303258,51.9699248 130.245614,51.9699248 C123.18797,51.9699248 117.413534,46.1954887 117.413534,39.1378446 C118.055138,32.0802005 123.829574,26.3057644 130.245614,26.3057644 Z M75.7092732,65.443609 L189.273183,65.443609 L184.140351,83.4085213 L80.8421053,83.4085213 L75.7092732,65.443609 Z M130.245614,229.694236 C123.18797,229.694236 117.413534,223.919799 117.413534,216.862155 C117.413534,209.804511 123.18797,204.030075 130.245614,204.030075 C137.303258,204.030075 143.077694,209.804511 143.077694,216.862155 C143.077694,223.919799 137.303258,229.694236 130.245614,229.694236 Z M75.7092732,190.556391 L80.2005013,172.591479 L184.140351,172.591479 L189.273183,190.556391 L75.7092732,190.556391 Z" fill="#FFC600" fill-rule="nonzero"/>
  </g>
</svg>

<svg viewBox="0 0 256 256" xmlns="http://www.w3.org/2000/svg" preserveAspectRatio="xMidYMid" height="1em" width="1em">
  <path d="M81.484 119.338v-17.965H256V0H0v137.303h182.216v17.965H0V256h256V118.697H81.484v.641Zm48.762-93.032c7.057 0 12.832 5.774 12.832 12.832 0 7.057-5.775 12.832-12.832 12.832-7.058 0-12.832-5.775-12.832-12.832.641-7.058 6.416-12.832 12.832-12.832ZM75.709 65.444h113.564l-5.133 17.965H80.842L75.71 65.444Zm54.537 164.25c-7.058 0-12.832-5.774-12.832-12.832 0-7.057 5.774-12.832 12.832-12.832 7.057 0 12.832 5.775 12.832 12.832 0 7.058-5.775 12.832-12.832 12.832Zm-54.537-39.138 4.492-17.965h103.94l5.132 17.965H75.71Z" fill="#FFC600"/>
</svg>
